src/assets/coins/blue.svg

<svg xmlns="http://www.w3.org/2000/svg" xmlns:xlink="http://www.w3.org/1999/xlink" width="500" zoomAndPan="magnify" viewBox="0 0 375 374.999991" height="500" preserveAspectRatio="xMidYMid meet" version="1.0"><defs><clipPath id="51fb5acdcd"><path d="M 37 48.113281 L 338 48.113281 L 338 338.699219 L 37 338.699219 Z M 37 48.113281 " clip-rule="nonzero"/></clipPath><clipPath id="79c2f27ae6"><path d="M 217.855469 58.308594 L 316.03125 129.488281 C 334.136719 142.613281 341.730469 165.902344 334.847656 187.175781 L 297.359375 303.023438 C 290.476562 324.292969 270.667969 338.699219 248.3125 338.699219 L 126.679688 338.699219 C 104.324219 338.699219 84.519531 324.292969 77.636719 303.023438 L 40.148438 187.175781 C 33.261719 165.902344 40.859375 142.613281 58.960938 129.488281 L 157.136719 58.308594 C 175.246094 45.179688 199.746094 45.179688 217.855469 58.308594 Z M 217.855469 58.308594 " clip-rule="nonzero"/></clipPath><clipPath id="35a66aa40e"><path d="M 0 0.113281 L 301 0.113281 L 301 290.699219 L 0 290.699219 Z M 0 0.113281 " clip-rule="nonzero"/></clipPath><clipPath id="40dc53a82d"><path d="M 180.855469 10.308594 L 279.03125 81.488281 C 297.136719 94.613281 304.730469 117.902344 297.847656 139.175781 L 260.359375 255.023438 C 253.476562 276.292969 233.667969 290.699219 211.3125 290.699219 L 89.679688 290.699219 C 67.324219 290.699219 47.519531 276.292969 40.636719 255.023438 L 3.148438 139.175781 C -3.738281 117.902344 3.859375 94.613281 21.960938 81.488281 L 120.136719 10.308594 C 138.246094 -2.820312 162.746094 -2.820312 180.855469 10.308594 Z M 180.855469 10.308594 " clip-rule="nonzero"/></clipPath><clipPath id="7a8025a8a7"><rect x="0" width="301" y="0" height="291"/></clipPath><clipPath id="6e36272984"><path d="M 37.546875 48.214844 L 338 48.214844 L 338 338.550781 L 37.546875 338.550781 Z M 37.546875 48.214844 " clip-rule="nonzero"/></clipPath><clipPath id="1614a8dcca"><path d="M 217.855469 58.308594 L 316.027344 129.484375 C 334.128906 142.609375 341.726562 165.898438 334.839844 187.171875 L 297.355469 303.011719 C 290.472656 324.28125 270.664062 338.691406 248.3125 338.691406 L 126.683594 338.691406 C 104.328125 338.691406 84.523438 324.28125 77.640625 303.011719 L 40.152344 187.171875 C 33.269531 165.898438 40.863281 142.609375 58.964844 129.484375 L 157.136719 58.308594 C 175.246094 45.179688 199.746094 45.179688 217.855469 58.308594 Z M 217.855469 58.308594 " clip-rule="nonzero"/></clipPath></defs><g clip-path="url(#51fb5acdcd)"><g clip-path="url(#79c2f27ae6)"><g transform="matrix(1, 0, 0, 1, 37, 48)"><g clip-path="url(#7a8025a8a7)"><g clip-path="url(#35a66aa40e)"><g clip-path="url(#40dc53a82d)"><path fill="#72d4ff" d="M -8.398438 -11.699219 L 309.359375 -11.699219 L 309.359375 290.699219 L -8.398438 290.699219 Z M -8.398438 -11.699219 " fill-opacity="1" fill-rule="nonzero"/></g></g></g></g></g></g><g clip-path="url(#6e36272984)"><g clip-path="url(#1614a8dcca)"><path stroke-linecap="butt" transform="matrix(0.75, 0, 0, 0.75, 28.607632, 36.299236)" fill="none" stroke-linejoin="miter" d="M 252.330465 29.345812 L 383.226307 124.24686 C 407.361726 141.746861 417.491935 172.798947 408.309642 201.163532 L 358.330472 355.616667 C 349.153389 383.976044 322.741928 403.189587 292.939843 403.189587 L 130.767958 403.189587 C 100.960664 403.189587 74.554412 383.976044 65.377328 355.616667 L 15.39295 201.163532 C 6.215866 172.798947 16.340867 141.746861 40.476285 124.24686 L 171.372127 29.345812 C 195.517962 11.840603 228.184631 11.840603 252.330465 29.345812 Z M 252.330465 29.345812 " stroke="#4ab9e3" stroke-width="20" stroke-opacity="1" stroke-miterlimit="4"/></g></g></svg>

<svg xmlns="http://www.w3.org/2000/svg" width="500" viewBox="0 0 375 375" height="500" version="1.0"><defs><clipPath id="a"><path d="M37 48.113h301V338.7H37Zm0 0"/></clipPath><clipPath id="b"><path d="m217.855 58.309 98.176 71.18c18.106 13.124 25.7 36.413 18.817 57.687l-37.489 115.847c-6.882 21.27-26.691 35.676-49.046 35.676H126.68c-22.356 0-42.16-14.406-49.043-35.676L40.148 187.176c-6.886-21.274.711-44.563 18.813-57.688l98.176-71.18c18.11-13.128 42.61-13.128 60.718 0m0 0"/></clipPath><clipPath id="d"><path d="M0 .113h301V290.7H0Zm0 0"/></clipPath><clipPath id="e"><path d="m180.855 10.309 98.176 71.18c18.106 13.124 25.7 36.413 18.817 57.687l-37.489 115.847c-6.882 21.27-26.691 35.676-49.046 35.676H89.68c-22.356 0-42.16-14.406-49.043-35.676L3.148 139.176c-6.886-21.274.711-44.563 18.813-57.688l98.176-71.18c18.11-13.128 42.61-13.128 60.718 0m0 0"/></clipPath><clipPath id="c"><path d="M0 0h301v291H0z"/></clipPath><clipPath id="f"><path d="M37.547 48.215H338V338.55H37.547Zm0 0"/></clipPath><clipPath id="g"><path d="m217.855 58.309 98.172 71.175c18.102 13.125 25.7 36.414 18.813 57.688l-37.485 115.84c-6.882 21.27-26.69 35.68-49.043 35.68H126.685c-22.356 0-42.16-14.41-49.043-35.68l-37.489-115.84c-6.882-21.274.711-44.563 18.813-57.688l98.172-71.175c18.11-13.13 42.61-13.13 60.718 0m0 0"/></clipPath></defs><g clip-path="url(#a)"><g clip-path="url(#b)"><g clip-path="url(#c)" transform="translate(37 48)"><g clip-path="url(#d)"><g clip-path="url(#e)"><path fill="#72d4ff" d="M-8.398-11.7h317.757v302.4H-8.398Zm0 0"/></g></g></g></g></g><g clip-path="url(#f)"><g clip-path="url(#g)"><path fill="none" d="m217.855 58.309 98.172 71.175c18.102 13.125 25.7 36.414 18.813 57.688l-37.485 115.84c-6.882 21.27-26.69 35.68-49.042 35.68h-121.63c-22.355 0-42.16-14.41-49.042-35.68l-37.489-115.84c-6.882-21.274.711-44.563 18.813-57.688l98.172-71.175c18.11-13.13 42.61-13.13 60.718 0Zm0 0" stroke="#4ab9e3" stroke-width="15"/></g></g></svg>
